X: 11
T:Une Autre Fois
M:C
L:1/8
S:Frederic Paris
R:Schottische
Z:Steve Mansfield
K:G
Bc |: d4 cBAG | e3d cBAG | A2GA A2GA | B3c BAGF | E3F G2FG |
A2AB AGBA |1 G3A GABc :|2 G3A GFGA || G3A G2FG | A3B AGBA |
G3A GFED | G3A GFGA | G3A G2FG | A3B AGcB | A6 ||
<end>
<start>
